packages/icons/svg/Outline/radio-button-off.svg

<svg fill="none" height="24" viewBox="0 0 24 24" width="24" xmlns="http://www.w3.org/2000/svg"><path clip-rule="evenodd" d="m12 4.00007c-4.41098 0-7.99998 3.58899-7.99998 8.00003 0 4.411 3.589 8 7.99998 8 4.411 0 8-3.589 8-8 0-4.41104-3.589-8.00003-8-8.00003zm0 17.99993c-5.514 0-10-4.486-10-10s4.486-10 10-10 10 4.486 10 10-4.486 10-10 10z" fill="#6b7280" fill-rule="evenodd"/></svg>

<svg width="24" height="24" viewBox="0 0 24 24" fill="none" xmlns="http://www.w3.org/2000/svg">
<g id="Icon/Outline/radio-button-off">
<path id="Mask" fill-rule="evenodd" clip-rule="evenodd" d="M12 4C7.589 4 4 7.589 4 12C4 16.411 7.589 20 12 20C16.411 20 20 16.411 20 12C20 7.589 16.411 4 12 4ZM12 22C6.486 22 2 17.514 2 12C2 6.486 6.486 2 12 2C17.514 2 22 6.486 22 12C22 17.514 17.514 22 12 22Z" fill="#000000"/>
</g>
</svg>
